X:1
T:Aki dudás akar lenni
C:Hungarian folk song
Z:Public Domain
L:1/4
M:4/4
K:C
V:1 treble nm="Voice"
%%MIDI program 52
V:1
 c G G F | E F G G | c G G F | E D C C | F F E D | C E G G | G E F D | C C C C |] %8
w: A- ki du- dás|a- kar len- ni,|Po- kol- ra kell|an- nak men- ni,|Ott kell an- nak|meg- ta- nul- ni,|Ho- gyan kell a|du- dát fúj- ni.-|

